img/instruction-arrow-1.svg

<svg width="198" height="59" viewBox="0 0 198 59" fill="none" xmlns="http://www.w3.org/2000/svg">
<g clip-path="url(#clip0_1967_26)">
<path d="M195.862 58.5546C196.127 58.631 196.404 58.4778 196.48 58.2124L197.726 53.8881C197.802 53.6228 197.649 53.3457 197.384 53.2693C197.118 53.1929 196.841 53.3461 196.765 53.6114L195.658 57.4552L191.814 56.3484C191.549 56.272 191.272 56.4251 191.195 56.6905C191.119 56.9559 191.272 57.2329 191.537 57.3093L195.862 58.5546ZM1.10374 12.5633C1.76711 12.4226 2.42881 12.283 3.08885 12.1447L2.88373 11.166C2.22289 11.3045 1.56039 11.4442 0.89624 11.5851L1.10374 12.5633ZM7.02909 11.3293C8.34175 11.0611 9.64771 10.7978 10.947 10.5396L10.752 9.55877C9.45098 9.81739 8.14328 10.081 6.82893 10.3495L7.02909 11.3293ZM14.9096 9.76347C16.2235 9.51003 17.5304 9.26188 18.8304 9.01909L18.6468 8.03609C17.3448 8.27925 16.036 8.52777 14.7202 8.78157L14.9096 9.76347ZM22.8036 8.28997C24.1242 8.05199 25.4375 7.81974 26.7436 7.59332L26.5728 6.60802C25.2645 6.83483 23.949 7.06746 22.6262 7.30583L22.8036 8.28997ZM30.7135 6.91942C32.0403 6.69905 33.3595 6.48493 34.6711 6.27713L34.5146 5.28945C33.2005 5.49765 31.8789 5.71217 30.5497 5.93293L30.7135 6.91942ZM38.6413 5.66404C39.9737 5.46374 41.298 5.27023 42.6143 5.08359L42.4739 4.09349C41.1548 4.28053 39.8277 4.47445 38.4927 4.67515L38.6413 5.66404ZM46.5884 4.53791C47.9254 4.36043 49.2539 4.19033 50.5741 4.02771L50.4518 3.03521C49.1285 3.19822 47.7968 3.36872 46.4568 3.5466L46.5884 4.53791ZM54.5552 3.55724C55.8957 3.40567 57.2274 3.26212 58.5503 3.12673L58.4484 2.13193C57.122 2.26769 55.7868 2.41161 54.4429 2.56357L54.5552 3.55724ZM62.5411 2.74068C63.8838 2.61848 65.2172 2.50502 66.5414 2.40044L66.4626 1.40355C65.1344 1.50845 63.797 1.62224 62.4505 1.74479L62.5411 2.74068ZM70.5438 2.10962C71.887 2.02068 73.2205 1.94126 74.5443 1.8715L74.4917 0.872884C73.1633 0.942883 71.8253 1.02257 70.4777 1.11181L70.5438 2.10962ZM78.559 1.68858C79.9008 1.6372 81.2324 1.5962 82.5538 1.56573L82.5308 0.565994C81.2042 0.596586 79.8675 0.637742 78.5207 0.689308L78.559 1.68858ZM86.58 1.50539C87.9203 1.49636 89.2498 1.49866 90.5685 1.51246L90.579 0.512509C89.2543 0.498649 87.9191 0.49634 86.5733 0.505414L86.58 1.50539ZM94.5971 1.59151C95.9413 1.63046 97.2741 1.68195 98.5955 1.74615L98.644 0.747324C97.316 0.682802 95.9767 0.631064 94.6261 0.591924L94.5971 1.59151ZM102.597 1.98199C103.943 2.07558 105.276 2.18303 106.598 2.30454L106.69 1.30874C105.36 1.18653 104.019 1.07849 102.666 0.984397L102.597 1.98199ZM110.565 2.71591C111.908 2.87128 113.238 3.04193 114.555 3.22808L114.695 2.23792C113.369 2.05057 112.031 1.87886 110.68 1.72254L110.565 2.71591ZM118.511 3.84062C119.834 4.0637 121.143 4.30329 122.439 4.55961L122.633 3.57861C121.328 3.32043 120.009 3.07915 118.677 2.85454L118.511 3.84062ZM126.366 5.39724C127.675 5.69712 128.97 6.01506 130.25 6.35132L130.504 5.38411C129.213 5.04513 127.909 4.72469 126.59 4.42251L126.366 5.39724ZM134.096 7.42912C135.385 7.81367 136.659 8.2179 137.918 8.64211L138.237 7.69443C136.967 7.26644 135.682 6.85869 134.382 6.47087L134.096 7.42912ZM141.683 9.98678C142.934 10.4595 144.17 10.9531 145.391 11.468L145.779 10.5467C144.547 10.0268 143.299 9.52845 142.037 9.05136L141.683 9.98678ZM149.049 13.096C150.259 13.6635 151.454 14.2532 152.634 14.8655L153.095 13.978C151.903 13.3594 150.696 12.7637 149.474 12.1906L149.049 13.096ZM156.141 16.7786C157.299 17.4414 158.441 18.1275 159.568 18.8372L160.101 17.991C158.962 17.2738 157.808 16.5805 156.638 15.9108L156.141 16.7786ZM162.904 21.0374C163.999 21.7933 165.078 22.5731 166.143 23.377L166.746 22.5789C165.67 21.7664 164.579 20.9784 163.472 20.2145L162.904 21.0374ZM169.285 25.855C170.309 26.6981 171.318 27.5652 172.313 28.4566L172.98 27.7118C171.975 26.8112 170.955 25.935 169.921 25.0831L169.285 25.855ZM175.233 31.1829C176.185 32.1085 177.123 33.0581 178.047 34.0319L178.772 33.3435C177.839 32.3601 176.892 31.401 175.93 30.466L175.233 31.1829ZM180.741 36.9831C181.613 37.9763 182.472 38.9927 183.319 40.0326L184.094 39.4013C183.24 38.3519 182.373 37.326 181.492 36.3233L180.741 36.9831ZM185.792 43.1869C186.589 44.2413 187.374 45.3181 188.147 46.4176L188.965 45.8424C188.186 44.7337 187.394 43.6477 186.59 42.584L185.792 43.1869ZM190.391 49.7222C191.118 50.8325 191.835 51.9643 192.54 53.1179L193.393 52.5962C192.683 51.4338 191.96 50.2932 191.227 49.1741L190.391 49.7222ZM194.571 56.552C194.904 57.1347 195.234 57.7227 195.562 58.316L196.438 57.8322C196.107 57.2348 195.774 56.6426 195.439 56.0556L194.571 56.552Z" fill="#707070"/>
</g>
<defs>
<clipPath id="clip0_1967_26">
<rect width="198" height="59" fill="white"/>
</clipPath>
</defs>
</svg>

<svg width="198" height="59" fill="none" xmlns="http://www.w3.org/2000/svg"><g clip-path="url(#clip0_1967_26)"><path d="M195.862 58.555a.5.5 0 00.618-.343l1.246-4.324a.5.5 0 00-.961-.277l-1.107 3.844-3.844-1.107a.5.5 0 00-.277.961l4.325 1.246zM1.104 12.563l1.985-.418-.205-.979c-.661.139-1.324.278-1.988.42l.208.977zm5.925-1.234c1.313-.268 2.619-.531 3.918-.79l-.195-.98c-1.301.258-2.609.522-3.923.79l.2.98zm7.88-1.566c1.315-.253 2.621-.501 3.921-.744l-.183-.983c-1.302.243-2.611.492-3.927.746l.19.981zm7.895-1.473c1.32-.238 2.634-.47 3.94-.697l-.171-.985c-1.308.227-2.624.46-3.947.698l.178.984zm7.91-1.37c1.326-.221 2.645-.435 3.957-.643l-.156-.988c-1.315.209-2.636.423-3.965.644l.163.986zm7.927-1.256c1.333-.2 2.657-.394 3.973-.58l-.14-.99c-1.32.187-2.646.38-3.981.581l.148.989zm7.947-1.126a426.92 426.92 0 013.986-.51l-.122-.993c-1.323.163-2.655.334-3.995.512l.131.99zm7.967-.98c1.34-.152 2.672-.296 3.995-.431l-.102-.995c-1.326.136-2.661.28-4.005.432l.112.993zm7.986-.817a336.03 336.03 0 014-.34l-.078-.997c-1.329.104-2.666.218-4.012.34l.09.997zm8.003-.631c1.343-.09 2.677-.169 4-.238l-.052-1c-1.329.07-2.667.15-4.014.24l.066.998zm8.015-.421a262.64 262.64 0 013.995-.123l-.023-1c-1.327.03-2.663.072-4.01.123l.038 1zm8.021-.184c1.34-.009 2.67-.006 3.989.007l.01-1a254.35 254.35 0 00-4.006-.006l.007 1zm8.017.087a199 199 0 013.999.154l.048-.999a205.411 205.411 0 00-4.018-.155l-.029 1zm8 .39c1.346.094 2.679.201 4.001.323l.092-.996c-1.33-.122-2.671-.23-4.024-.325l-.069.998zm7.968.734c1.343.155 2.673.326 3.99.512l.14-.99a156.41 156.41 0 00-4.015-.515l-.115.993zm7.946 1.125c1.323.223 2.632.462 3.928.719l.194-.981a137.23 137.23 0 00-3.956-.724l-.166.986zm7.855 1.556c1.309.3 2.604.618 3.884.954l.254-.967c-1.291-.339-2.595-.66-3.914-.961l-.224.974zm7.73 2.032c1.289.385 2.563.789 3.822 1.213l.319-.948c-1.27-.428-2.555-.835-3.855-1.223l-.286.958zm7.587 2.558c1.251.473 2.487.966 3.708 1.481l.388-.921c-1.232-.52-2.48-1.019-3.742-1.496l-.354.936zm7.366 3.109a99.686 99.686 0 013.585 1.77l.461-.888a100.52 100.52 0 00-3.621-1.787l-.425.905zm7.092 3.683a94.86 94.86 0 013.427 2.058l.533-.846a95.983 95.983 0 00-3.463-2.08l-.497.868zm6.763 4.258a94.237 94.237 0 013.239 2.34l.603-.798a94.477 94.477 0 00-3.274-2.364l-.568.822zm6.381 4.818a95.67 95.67 0 013.028 2.602l.667-.745a97.124 97.124 0 00-3.059-2.629l-.636.772zm5.948 5.328c.952.925 1.89 1.875 2.814 2.849l.725-.688a99.789 99.789 0 00-2.842-2.878l-.697.717zm5.508 5.8c.872.993 1.731 2.01 2.578 3.05l.775-.632a106.666 106.666 0 00-2.602-3.078l-.751.66zm5.051 6.204a115.928 115.928 0 012.355 3.23l.818-.575a116.029 116.029 0 00-2.375-3.258l-.798.603zm4.599 6.535c.727 1.11 1.444 2.242 2.149 3.396l.853-.522a128.374 128.374 0 00-2.166-3.422l-.836.548zm4.18 6.83c.333.583.663 1.17.991 1.764l.876-.484a161.32 161.32 0 00-.999-1.776l-.868.496z" fill="#707070"/></g><defs><clipPath id="clip0_1967_26"><path fill="#fff" d="M0 0h198v59H0z"/></clipPath></defs></svg>
